zondicons/svg/tuning.svg

<svg xmlns="http://www.w3.org/2000/svg" viewBox="0 0 20 20"><path d="M17 16v4h-2v-4h-2v-3h6v3h-2zM1 9h6v3H1V9zm6-4h6v3H7V5zM3 0h2v8H3V0zm12 0h2v12h-2V0zM9 0h2v4H9V0zM3 12h2v8H3v-8zm6-4h2v12H9V8z"/></svg>

<svg width="20px" height="20px" viewBox="0 0 20 20" version="1.1" xmlns="http://www.w3.org/2000/svg" xmlns:xlink="http://www.w3.org/1999/xlink"><title>tuning</title><desc>Created with Sketch.</desc><defs></defs><g id="Page-1" stroke="none" stroke-width="1" fill="none" fill-rule="evenodd"><g id="tuning" fill="#000000"><path d="M17,16 L19,16 L19,13 L13,13 L13,16 L15,16 L15,20 L17,20 L17,16 Z M1,9 L7,9 L7,12 L1,12 L1,9 Z M7,5 L13,5 L13,8 L7,8 L7,5 Z M3,0 L5,0 L5,8 L3,8 L3,0 Z M15,0 L17,0 L17,12 L15,12 L15,0 Z M9,0 L11,0 L11,4 L9,4 L9,0 Z M3,12 L5,12 L5,20 L3,20 L3,12 Z M9,8 L11,8 L11,20 L9,20 L9,8 Z" id="Combined-Shape"></path></g></g></svg>
